X:265
T:Archie Menzies
O:england
M:4/4
L:1/8
S:Wil Macaulay, Ir-Trad, 3/97
R:reel
A:Cape Breton
B:Sandy Macintyre's lesson book
K:F
C2| F2(CF) AFCF | Acde fcAF | G2(DG) BGDG | Bdef gdBG |
F2(CF) AFCF | Acde fcAc | BdGB AcFA |  GECE F2 :|
(ueg) | f2 (cf) afef | cfag fed^f | g2(dg) bg^fg | dgba gfed |
cfef afef | cfag fedc | BdGB AcFA | GECE F2 :|


